build/img/contacts/fb.svg

<svg width="21" height="21" viewBox="0 0 21 21" fill="none" xmlns="http://www.w3.org/2000/svg">
<path d="M21 10.5C21 4.7019 16.2981 0 10.5 0C4.7019 0 0 4.7019 0 10.5C0 16.2981 4.7019 21 10.5 21C10.5617 21 10.623 20.9987 10.6846 20.9976V12.8238H8.42871V10.1948H10.6846V8.26016C10.6846 6.01648 12.0543 4.7953 14.0557 4.7953C15.0141 4.7953 15.838 4.86676 16.0781 4.89864V7.24358H14.698C13.6092 7.24358 13.3983 7.76109 13.3983 8.52036V10.1948H16.0019L15.6625 12.8238H13.3983V20.5943C17.7872 19.3361 21 15.2927 21 10.5Z" fill="#555665"/>
</svg>

<svg width="21" height="21" fill="none" xmlns="http://www.w3.org/2000/svg"><path d="M21 10.5C21 4.702 16.298 0 10.5 0S0 4.702 0 10.5 4.702 21 10.5 21l.185-.002v-8.174H8.429v-2.63h2.256V8.26c0-2.244 1.37-3.465 3.37-3.465.96 0 1.783.072 2.023.104v2.345h-1.38c-1.089 0-1.3.517-1.3 1.276v1.675h2.604l-.34 2.629h-2.264v7.77C17.788 19.336 21 15.293 21 10.5z" fill="#555665"/></svg>
